markets/ZIL.svg

<svg width="42" height="42" viewBox="0 0 42 42" fill="none" xmlns="http://www.w3.org/2000/svg">
<circle cx="21" cy="21" r="21" fill="#49C1BF"/>
<g clip-path="url(#clip0_7698_9781)">
<path d="M30.7787 18.5704L26.7471 20.3679L16.0518 25.8118L26.7471 30.954V22.4543L30.7787 20.6375V33.1945L26.7471 34.9921L10.9995 27.4553V23.4494L21.9002 18.1017L10.9995 12.8632V8.79954L15.0953 7.00201L30.7787 14.5516V18.5704Z" fill="#49C1BF"/>
<path d="M10.9995 8.79954L26.7471 16.3491L30.7787 14.5516L15.0953 7.00201L10.9995 8.79954Z" fill="#80D4D2"/>
<path d="M26.7473 16.3319L30.7789 14.5344V18.5531L26.7473 20.3506V16.3319Z" fill="#BFE9E8"/>
<path d="M10.9995 8.80292V12.8666L21.9002 18.1051L10.9995 23.4527V27.4587L26.7471 34.9954V30.9638L16.0518 25.8152L26.7471 20.3713V16.3525L10.9995 8.80292Z" fill="white"/>
<path d="M26.7473 34.9654L30.7789 33.1679V20.6109L26.7473 22.4277V34.9654Z" fill="#BFE9E8"/>
</g>
<defs>
<clipPath id="clip0_7698_9781">
<rect width="19.7792" height="28" fill="white" transform="translate(11 7)"/>
</clipPath>
</defs>
</svg>

<svg width="42" height="42" viewBox="0 0 42 42" fill="none" xmlns="http://www.w3.org/2000/svg"><circle cx="21" cy="21" r="21" fill="#49C1BF"/><g clip-path="url(#clip0_7698_9781)"><path d="M30.779 18.57l-4.032 1.798-10.695 5.444 10.695 5.142v-8.5l4.032-1.817v12.557l-4.032 1.798L11 27.455V23.45l10.9-5.348L11 12.863V8.8l4.095-1.798 15.684 7.55v4.018z" fill="#49C1BF"/><path d="M11 8.8l15.747 7.55 4.032-1.798-15.684-7.55L11 8.8z" fill="#80D4D2"/><path d="M26.747 16.332l4.032-1.798v4.02l-4.032 1.797v-4.02z" fill="#BFE9E8"/><path d="M11 8.803v4.064l10.9 5.238L11 23.453v4.006l15.747 7.536v-4.031l-10.695-5.149 10.695-5.444v-4.018L11 8.802z" fill="#fff"/><path d="M26.747 34.965l4.032-1.797V20.61l-4.032 1.817v12.537z" fill="#BFE9E8"/></g><defs><clipPath id="clip0_7698_9781"><path fill="#fff" transform="translate(11 7)" d="M0 0h19.779v28H0z"/></clipPath></defs></svg>
